X: 680
T: Hengjiang lou
%%abc-version 2.0
%%abcx-abcm2ps-target-version 5.9.1 (29 Sep 2008)
%%abc-creator hum2abc beta
%%abcx-conversion-date 2013/10/02 07:52:30
%%abc-edited-by Helmut Schaffrath
%%humdrum-veritas 2107888445
%%humdrum-veritas-data 3061557609
%%continueall 1
%%barnumbers 0
L: 1/8
M: 2/4
K: F
d c A c [I:setbarnb 1]| 
d4 | 
f2f2 | 
d f d c | 
c A G A | 
c4 | 
d f d c | 
cA2G | 
A4 | 
A G F G | 
A3z | 
c d c A | 
G A G F | 
E D C D | 
F4 | 
G A G F | 
FD2C | 
D4 |]  



